images/box-tip.svg

<svg width="200" height="200" viewBox="0 0 200 200" version="1.1" xmlns="http://www.w3.org/2000/svg" xmlns:xlink="http://www.w3.org/1999/xlink">
<title>box-tip</title>
<desc>Created using Figma</desc>
<g id="Canvas" transform="translate(-266 234)">
<clipPath id="clip-0" clip-rule="evenodd">
<path d="M 266 -234L 466 -234L 466 -34L 266 -34L 266 -234Z" fill="#FFFFFF"/>
</clipPath>
<g id="box-tip" clip-path="url(#clip-0)">
<g id="Ellipse">
<use xlink:href="#path0_fill" transform="translate(266 -234)" fill="#9B51E0"/>
<mask id="mask0_outline_ins">
<use xlink:href="#path0_fill" fill="white" transform="translate(266 -234)"/>
</mask>
<g mask="url(#mask0_outline_ins)">
<use xlink:href="#path1_stroke_2x" transform="translate(266 -234)"/>
</g>
</g>
<g id="basic_lightbulb">
<g id="Union">
<use xlink:href="#path2_fill" transform="translate(330.141 -187.867)" fill="#FFFEFE"/>
</g>
<g id="Vector">
<use xlink:href="#path3_stroke" transform="translate(328 -190)"/>
</g>
<g id="Vector">
<use xlink:href="#path4_stroke" transform="translate(353.333 -146.645)"/>
</g>
<g id="Vector">
<use xlink:href="#path5_stroke" transform="translate(373.238 -146.645)"/>
</g>
<g id="Vector">
<use xlink:href="#path6_stroke" transform="translate(353.333 -144.839)"/>
</g>
<g id="Vector">
<use xlink:href="#path7_stroke" transform="translate(346.095 -110.516)"/>
</g>
<g id="Vector">
<use xlink:href="#path8_stroke" transform="translate(349.714 -99.6774)"/>
</g>
<g id="Vector">
<use xlink:href="#path9_stroke" transform="translate(353.333 -88.8387)"/>
</g>
</g>
</g>
</g>
<defs>
<path id="path0_fill" d="M 200 100C 200 155.228 155.228 200 100 200C 44.7715 200 0 155.228 0 100C 0 44.7715 44.7715 0 100 0C 155.228 0 200 44.7715 200 100Z"/>
<path id="path1_stroke_2x" d="M 193 100C 193 151.362 151.362 193 100 193L 100 207C 159.094 207 207 159.094 207 100L 193 100ZM 100 193C 48.6375 193 7 151.362 7 100L -7 100C -7 159.094 40.9055 207 100 207L 100 193ZM 7 100C 7 48.6375 48.6375 7 100 7L 100 -7C 40.9055 -7 -7 40.9055 -7 100L 7 100ZM 100 7C 151.362 7 193 48.6375 193 100L 207 100C 207 40.9055 159.094 -7 100 -7L 100 7Z"/>
<path id="path2_fill" fill-rule="evenodd" d="M 54.5916 67.1976C 64.8656 60.8196 71.7183 49.3525 71.7183 36.2667C 71.7183 16.2371 55.6636 0 35.8592 0C 16.0547 0 0 16.2371 0 36.2667C 0 49.3525 6.85272 60.8196 17.1268 67.1976L 17.1268 76.8L 54.5916 76.8L 54.5916 67.1976Z"/>
<path id="path3_stroke" d="M 18.0952 70.4516L 20.5952 70.4516L 20.5952 69.0539L 19.4045 68.3219L 18.0952 70.4516ZM 18.0952 79.4839L 15.5952 79.4839L 15.5952 81.9839L 18.0952 81.9839L 18.0952 79.4839ZM 57.9048 79.4839L 57.9048 81.9839L 60.4043 81.9839L 60.4048 79.4844L 57.9048 79.4839ZM 57.9066 70.2583L 56.5963 68.1292L 55.4068 68.8612L 55.4066 70.2578L 57.9066 70.2583ZM 15.5952 70.4516L 15.5952 79.4839L 20.5952 79.4839L 20.5952 70.4516L 15.5952 70.4516ZM 18.0952 81.9839L 57.9048 81.9839L 57.9048 76.9839L 18.0952 76.9839L 18.0952 81.9839ZM 60.4048 79.4844L 60.4066 70.2588L 55.4066 70.2578L 55.4048 79.4834L 60.4048 79.4844ZM 59.2168 72.3875C 70.7792 65.2721 78.5 52.5049 78.5 37.9355L 73.5 37.9355C 73.5 50.694 66.7446 61.884 56.5963 68.1292L 59.2168 72.3875ZM 78.5 37.9355C 78.5 15.5995 60.3636 -2.5 38 -2.5L 38 2.5C 57.6102 2.5 73.5 18.369 73.5 37.9355L 78.5 37.9355ZM 38 -2.5C 15.6364 -2.5 -2.5 15.5995 -2.5 37.9355L 2.5 37.9355C 2.5 18.369 18.3898 2.5 38 2.5L 38 -2.5ZM -2.5 37.9355C -2.5 52.492 5.20439 65.4616 16.786 72.5814L 19.4045 68.3219C 9.26456 62.0883 2.5 50.7105 2.5 37.9355L -2.5 37.9355Z"/>
<path id="path4_stroke" d="M 7.90082 35.7576L 2.47225 -0.371468L -2.47225 0.371468L 2.95632 36.5005L 7.90082 35.7576Z"/>
<path id="path5_stroke" d="M 2.47225 36.5005L 7.90082 0.371468L 2.95632 -0.371468L -2.47225 35.7576L 2.47225 36.5005Z"/>
<path id="path6_stroke" d="M 7.23809 5.41935L 5.73973 7.42058L 7.47246 8.71792L 9.00436 7.18862L 7.23809 5.41935ZM 12.6667 0L 14.4329 -1.76927L 12.6667 -3.53253L 10.9004 -1.76927L 12.6667 0ZM 18.0952 5.41935L 16.329 7.18862L 17.8609 8.71792L 19.5936 7.42058L 18.0952 5.41935ZM -1.49837 2.00122L 5.73973 7.42058L 8.73646 3.41813L 1.49837 -2.00122L -1.49837 2.00122ZM 9.00436 7.18862L 14.4329 1.76927L 10.9004 -1.76927L 5.47183 3.65009L 9.00436 7.18862ZM 10.9004 1.76927L 16.329 7.18862L 19.8615 3.65009L 14.4329 -1.76927L 10.9004 1.76927ZM 19.5936 7.42058L 26.8317 2.00122L 23.835 -2.00122L 16.5969 3.41813L 19.5936 7.42058Z"/>
<path id="path7_stroke" d="M 0 0L 0 -2.5L -2.5 -2.5L -2.5 0L 0 0ZM 39.8095 0L 42.3095 0L 42.3095 -2.5L 39.8095 -2.5L 39.8095 0ZM 39.8095 10.8387L 39.8095 13.3387L 42.3095 13.3387L 42.3095 10.8387L 39.8095 10.8387ZM 0 10.8387L -2.5 10.8387L -2.5 13.3387L 0 13.3387L 0 10.8387ZM 0 2.5L 39.8095 2.5L 39.8095 -2.5L 0 -2.5L 0 2.5ZM 37.3095 0L 37.3095 10.8387L 42.3095 10.8387L 42.3095 0L 37.3095 0ZM 39.8095 8.33871L 0 8.33871L 0 13.3387L 39.8095 13.3387L 39.8095 8.33871ZM 2.5 10.8387L 2.5 0L -2.5 0L -2.5 10.8387L 2.5 10.8387Z"/>
<path id="path8_stroke" d="M 0 0L 0 -2.5L -2.5 -2.5L -2.5 0L 0 0ZM 32.5714 0L 35.0714 0L 35.0714 -2.5L 32.5714 -2.5L 32.5714 0ZM 32.5714 10.8387L 32.5714 13.3387L 35.0714 13.3387L 35.0714 10.8387L 32.5714 10.8387ZM 0 10.8387L -2.5 10.8387L -2.5 13.3387L 0 13.3387L 0 10.8387ZM 0 2.5L 32.5714 2.5L 32.5714 -2.5L 0 -2.5L 0 2.5ZM 30.0714 0L 30.0714 10.8387L 35.0714 10.8387L 35.0714 0L 30.0714 0ZM 32.5714 8.33871L 0 8.33871L 0 13.3387L 32.5714 13.3387L 32.5714 8.33871ZM 2.5 10.8387L 2.5 0L -2.5 0L -2.5 10.8387L 2.5 10.8387Z"/>
<path id="path9_stroke" d="M 0 0L 0 -2.5L -2.5 -2.5L -2.5 0L 0 0ZM 25.3333 0L 27.8333 0L 27.8333 -2.5L 25.3333 -2.5L 25.3333 0ZM 25.3333 10.8387L 25.3333 13.3387L 27.8333 13.3387L 27.8333 10.8387L 25.3333 10.8387ZM 0 10.8387L -2.5 10.8387L -2.5 13.3387L 0 13.3387L 0 10.8387ZM 0 2.5L 25.3333 2.5L 25.3333 -2.5L 0 -2.5L 0 2.5ZM 22.8333 0L 22.8333 10.8387L 27.8333 10.8387L 27.8333 0L 22.8333 0ZM 25.3333 8.33871L 0 8.33871L 0 13.3387L 25.3333 13.3387L 25.3333 8.33871ZM 2.5 10.8387L 2.5 0L -2.5 0L -2.5 10.8387L 2.5 10.8387Z"/>
</defs>
<!-- Code injected by live-server -->
<script type="text/javascript">
	// <![CDATA[  <-- For SVG support
	if ('WebSocket' in window) {
		(function () {
			function refreshCSS() {
				var sheets = [].slice.call(document.getElementsByTagName("link"));
				var head = document.getElementsByTagName("head")[0];
				for (var i = 0; i < sheets.length; ++i) {
					var elem = sheets[i];
					head.removeChild(elem);
					var rel = elem.rel;
					if (elem.href && typeof rel != "string" || rel.length == 0 || rel.toLowerCase() == "stylesheet") {
						var url = elem.href.replace(/(&|\?)_cacheOverride=\d+/, '');
						elem.href = url + (url.indexOf('?') >= 0 ? '&' : '?') + '_cacheOverride=' + (new Date().valueOf());
					}
					head.appendChild(elem);
				}
			}
			var protocol = window.location.protocol === 'http:' ? 'ws://' : 'wss://';
			var address = protocol + window.location.host + window.location.pathname + '/ws';
			var socket = new WebSocket(address);
			socket.onmessage = function (msg) {
				if (msg.data == 'reload') window.location.reload();
				else if (msg.data == 'refreshcss') refreshCSS();
			};
			if (sessionStorage && !sessionStorage.getItem('IsThisFirstTime_Log_From_LiveServer')) {
				console.log('Live reload enabled.');
				sessionStorage.setItem('IsThisFirstTime_Log_From_LiveServer', true);
			}
		})();
	}
	else {
		console.error('Upgrade your browser. This Browser is NOT supported WebSocket for Live-Reloading.');
	}
	// ]]>
</script></svg>

<svg xmlns="http://www.w3.org/2000/svg" viewBox="0 0 200 200">
  <defs/>
  <title>
    box-tip
  </title>
  <g id="Canvas" transform="translate(-266 234)">
    <g id="g-1" transform="translate(.1 233.5)">
      <title>
        circle
      </title>
      <circle cx="366.1" cy="-367.8" r="96.5" style="stroke:#000;stroke-width:6px;fill:#9b51e0"/>
    </g>
    <g id="basic_lightbulb">
      <title>
        bulb
      </title>
      <path id="Union" fill="#FFFEFE" fill-rule="evenodd" d="M54.6 67.2A36.3 36.3 0 0035.9 0a36.3 36.3 0 00-18.7 67.2v9.6h37.4v-9.6z" transform="translate(330.1 -187.9)"/>
      <path id="Vector" d="M18.1 70.5h2.5V69l-1.2-.8-1.3 2.2zm0 9h-2.5V82h2.5v-2.5zm39.8 0V82h2.5v-2.5h-2.5zm0-9.2L56.6 68l-1.2.8v1.4H58zm-42.3.2v9h5v-9h-5zM18.1 82h39.8v-5H18.1v5zm42.3-2.5v-9.2h-5v9.2h5zm-1.2-7.1a40.4 40.4 0 0019.3-34.5h-5c0 12.8-6.8 24-16.9 30.2l2.6 4.3zm19.3-34.5A40.5 40.5 0 0038-2.5v5a35.5 35.5 0 0135.5 35.4h5zM38-2.5A40.5 40.5 0 00-2.5 37.9h5A35.5 35.5 0 0138 2.5v-5zM-2.5 37.9c0 14.6 7.7 27.6 19.3 34.7l2.6-4.3A35.7 35.7 0 012.5 38h-5z" transform="translate(328 -190)"/>
      <path id="Vector" d="M7.9 35.8L2.5-.4l-5 .8L3 36.5l4.9-.7z" transform="translate(353.3 -146.6)"/>
      <path id="Vector" d="M2.5 36.5L7.9.4l-5-.8-5.4 36.2 5 .7z" transform="translate(373.2 -146.6)"/>
      <path id="Vector" d="M7.2 5.4l-1.5 2 1.8 1.3L9 7.2 7.2 5.4zM12.7 0l1.7-1.8-1.7-1.7-1.8 1.7L12.7 0zM18 5.4l-1.8 1.8L18 8.7l1.7-1.3-1.5-2zM-1.5 2l7.2 5.4 3-4L1.5-2l-3 4zM9 7.2l5.4-5.4L11-1.8 5.5 3.7 9 7.2zm1.9-5.4l5.4 5.4L20 3.7l-5.5-5.5L11 1.8zm8.7 5.6L26.8 2l-3-4-7.2 5.4 3 4z" transform="translate(353.3 -144.8)"/>
      <path id="Vector" d="M0 0v-2.5h-2.5V0H0zm39.8 0h2.5v-2.5h-2.5V0zm0 10.8v2.5h2.5v-2.5h-2.5zM0 10.8h-2.5v2.5H0v-2.5zm0-8.3h39.8v-5H0v5zM37.3 0v10.8h5V0h-5zm2.5 8.3H0v5h39.8v-5zM2.5 10.8V0h-5v10.8h5z" transform="translate(346.1 -110.5)"/>
      <path id="Vector" d="M0 0v-2.5h-2.5V0H0zm32.6 0H35v-2.5h-2.5V0zm0 10.8v2.5H35v-2.5h-2.5zM0 10.8h-2.5v2.5H0v-2.5zm0-8.3h32.6v-5H0v5zM30 0v10.8h5V0h-5zm2.6 8.3H0v5h32.6v-5zM2.5 10.8V0h-5v10.8h5z" transform="translate(349.7 -99.7)"/>
      <path id="Vector" d="M0 0v-2.5h-2.5V0H0zm25.3 0h2.5v-2.5h-2.5V0zm0 10.8v2.5h2.5v-2.5h-2.5zM0 10.8h-2.5v2.5H0v-2.5zm0-8.3h25.3v-5H0v5zM22.8 0v10.8h5V0h-5zm2.5 8.3H0v5h25.3v-5zM2.5 10.8V0h-5v10.8h5z" transform="translate(353.3 -88.8)"/>
    </g>
  </g>
</svg>
